X:35
T: ICH WOLLT ICH WAER EIN FISCH
N: F0101
O: Europa, Mitteleuropa, Deutschland
R: Liebes - Lied
M: 3/8
L: 1/16
K: G
Bc | d2d2Bc | d2z2
gd | B2B2A2 | G2z2
BA | A2A2A2 | d2A2
FG | A2A2A2 | d2A2
de | f3gfe | eddz
Bc | d2d2Bc | d2z2
gd | B2B2A2 | G4

@@@ Tune index: 5466
